FINK
CUT[AN DER SAALE FERNEM STRANDE]
REG[Europa, Mitteleuropa, Deutschland]
KEY[F0547  16  G 3/4]
MEL[1_.2  3__3__2_1_  2_.32__
    1_2_  3_.45__-7__  1__0__
    6_.5  5_.4#4_-5_-7_2_  1_.33__
    6_.5  5_.4#4_-5_-7_2_  1_.33__
    1_.2  3_.55__4_.-7  1___ //] >>
FCT[Studenten - Lied, Abschied]
